src/assets/filled/SliderVertical.svg

<svg width="24" height="24" viewBox="0 0 24 24"  xmlns="http://www.w3.org/2000/svg">
<path d="M22 15V9C22 7.34 20.66 6 19 6H5C3.34 6 2 7.34 2 9V15C2 16.66 3.34 18 5 18H19C20.66 18 22 16.66 22 15Z" />
<path d="M5.92996 19.5H18.07C18.39 19.5 18.62 19.79 18.56 20.1C18.29 21.58 17.42 22 15.33 22H8.66996C6.56996 22 5.70996 21.58 5.43996 20.1C5.37996 19.79 5.60996 19.5 5.92996 19.5Z" />
<path d="M8.66996 2H15.33C17.43 2 18.29 2.42 18.56 3.9C18.62 4.21 18.38 4.5 18.07 4.5H5.92996C5.60996 4.5 5.37996 4.21 5.43996 3.9C5.70996 2.42 6.56996 2 8.66996 2Z" />
</svg>

<?xml version="1.0" encoding="UTF-8"?>
<svg width="24" height="24" viewBox="0 0 24 24" xmlns="http://www.w3.org/2000/svg">
 <path d="m22 15v-6c0-1.66-1.34-3-3-3h-14c-1.66 0-3 1.34-3 3v6c0 1.66 1.34 3 3 3h14c1.66 0 3-1.34 3-3z"/>
 <path d="m5.93 19.5h12.14c0.32 0 0.55 0.29 0.49 0.6-0.27 1.48-1.14 1.9-3.23 1.9h-6.66c-2.1 0-2.96-0.42-3.23-1.9-0.06-0.31 0.17-0.6 0.49-0.6z"/>
 <path d="m8.67 2h6.66c2.1 0 2.96 0.42 3.23 1.9 0.06 0.31-0.18 0.6-0.49 0.6h-12.14c-0.32 0-0.55-0.29-0.49-0.6 0.27-1.48 1.13-1.9 3.23-1.9z"/>
</svg>
